tests/colorchecker/argyll_amb_daylight_read2.sp
SPECT  

DESCRIPTOR "Argyll Spectral power/reflectance information"
ORIGINATOR "Argyll CMS"
CREATED "Sat Sep 13 13:47:00 2025"
MEAS_TYPE "AMBIENT"
SPECTRAL_BANDS "36"
SPECTRAL_START_NM "380.000000"
SPECTRAL_END_NM "730.000000"
SPECTRAL_NORM "1.000000"

NUMBER_OF_FIELDS 36
BEGIN_DATA_FORMAT
SPEC_380 SPEC_390 SPEC_400 SPEC_410 SPEC_420 SPEC_430 SPEC_440 SPEC_450 SPEC_460 SPEC_470 SPEC_480 SPEC_490 SPEC_500 SPEC_510 SPEC_520 SPEC_530 SPEC_540 SPEC_550 SPEC_560 SPEC_570 SPEC_580 SPEC_590 SPEC_600 SPEC_610 SPEC_620 SPEC_630 SPEC_640 SPEC_650 SPEC_660 SPEC_670 SPEC_680 SPEC_690 SPEC_700 SPEC_710 SPEC_720 SPEC_730 
END_DATA_FORMAT

NUMBER_OF_SETS 1
BEGIN_DATA
343.0386 342.9560 342.8861 436.6490 462.6783 448.4774 517.4567 599.0707 631.4390 634.6263 641.1470 634.5309 644.7284 635.0117 611.4103 626.6196 629.9048 634.2859 626.5591 619.1656 615.5574 594.2752 586.9834 586.3216 575.3936 563.2497 562.9110 548.4611 542.3445 552.2176 533.4931 484.5054 483.5665 488.1989 439.8820 432.6839 
END_DATA
