tests/daylight/argyll_amb_daylight_read1.sp
SPECT  

DESCRIPTOR "Argyll Spectral power/reflectance information"
ORIGINATOR "Argyll CMS"
CREATED "Sat Sep 13 13:45:59 2025"
MEAS_TYPE "AMBIENT"
SPECTRAL_BANDS "36"
SPECTRAL_START_NM "380.000000"
SPECTRAL_END_NM "730.000000"
SPECTRAL_NORM "1.000000"

NUMBER_OF_FIELDS 36
BEGIN_DATA_FORMAT
SPEC_380 SPEC_390 SPEC_400 SPEC_410 SPEC_420 SPEC_430 SPEC_440 SPEC_450 SPEC_460 SPEC_470 SPEC_480 SPEC_490 SPEC_500 SPEC_510 SPEC_520 SPEC_530 SPEC_540 SPEC_550 SPEC_560 SPEC_570 SPEC_580 SPEC_590 SPEC_600 SPEC_610 SPEC_620 SPEC_630 SPEC_640 SPEC_650 SPEC_660 SPEC_670 SPEC_680 SPEC_690 SPEC_700 SPEC_710 SPEC_720 SPEC_730 
END_DATA_FORMAT

NUMBER_OF_SETS 1
BEGIN_DATA
342.9508 342.8684 342.7987 435.9268 461.7671 447.6026 516.4117 597.6448 629.9209 633.3083 639.8053 633.0528 643.1313 633.4637 610.0385 625.3527 628.5602 632.8494 625.0333 617.5890 614.0171 592.7279 585.6265 585.0244 574.0950 561.9403 561.4944 546.9965 540.9584 550.8557 532.1142 483.2250 482.2799 486.8562 438.3782 431.3367 
END_DATA
