data/argyll_amb_copybox.sp
SPECT  

DESCRIPTOR "Argyll Spectral power/reflectance information"
ORIGINATOR "Argyll CMS"
CREATED "Wed Sep 10 21:29:16 2025"
MEAS_TYPE "AMBIENT"
SPECTRAL_BANDS "36"
SPECTRAL_START_NM "380.000000"
SPECTRAL_END_NM "730.000000"
SPECTRAL_NORM "1.000000"

NUMBER_OF_FIELDS 36
BEGIN_DATA_FORMAT
SPEC_380 SPEC_390 SPEC_400 SPEC_410 SPEC_420 SPEC_430 SPEC_440 SPEC_450 SPEC_460 SPEC_470 SPEC_480 SPEC_490 SPEC_500 SPEC_510 SPEC_520 SPEC_530 SPEC_540 SPEC_550 SPEC_560 SPEC_570 SPEC_580 SPEC_590 SPEC_600 SPEC_610 SPEC_620 SPEC_630 SPEC_640 SPEC_650 SPEC_660 SPEC_670 SPEC_680 SPEC_690 SPEC_700 SPEC_710 SPEC_720 SPEC_730 
END_DATA_FORMAT

NUMBER_OF_SETS 1
BEGIN_DATA
1.482515 1.433456 1.382692 4.625260 23.96517 101.6355 336.4925 564.3957 377.0922 210.4951 192.0517 257.6759 312.0697 321.2896 311.3266 304.2664 303.7516 308.3523 310.8760 313.1077 310.5919 306.8756 305.4910 308.1468 312.2505 311.2991 301.5125 283.1822 255.2970 221.5130 185.8426 152.1275 121.5767 95.40448 74.77839 57.40357 
END_DATA
