data/argyll_refl_leather.sp
SPECT  

DESCRIPTOR "Argyll Spectral power/reflectance information"
ORIGINATOR "Argyll CMS"
CREATED "Tue Sep  9 21:09:15 2025"
MEAS_TYPE "REFLECTIVE"
MEAS_CONDITIONS "CUSTOM"
SPECTRAL_BANDS "36"
SPECTRAL_START_NM "380.000000"
SPECTRAL_END_NM "730.000000"
SPECTRAL_NORM "100.000000"

NUMBER_OF_FIELDS 36
BEGIN_DATA_FORMAT
SPEC_380 SPEC_390 SPEC_400 SPEC_410 SPEC_420 SPEC_430 SPEC_440 SPEC_450 SPEC_460 SPEC_470 SPEC_480 SPEC_490 SPEC_500 SPEC_510 SPEC_520 SPEC_530 SPEC_540 SPEC_550 SPEC_560 SPEC_570 SPEC_580 SPEC_590 SPEC_600 SPEC_610 SPEC_620 SPEC_630 SPEC_640 SPEC_650 SPEC_660 SPEC_670 SPEC_680 SPEC_690 SPEC_700 SPEC_710 SPEC_720 SPEC_730 
END_DATA_FORMAT

NUMBER_OF_SETS 1
BEGIN_DATA
3.823428 3.817302 3.810904 3.804185 3.797328 4.118431 4.129137 4.138269 4.212186 4.312572 4.374043 4.392980 4.549035 4.916503 5.453529 6.096406 6.721689 7.319631 8.253203 9.888006 12.01000 14.10785 15.57862 16.27167 16.46177 16.56924 16.81696 17.12490 17.46844 17.68473 17.86536 18.02378 18.14815 18.24158 18.31474 18.43124 
END_DATA
