data/argyll_amb_negsupply97cri.sp
SPECT  

DESCRIPTOR "Argyll Spectral power/reflectance information"
ORIGINATOR "Argyll CMS"
CREATED "Wed Sep 10 21:27:47 2025"
MEAS_TYPE "AMBIENT"
SPECTRAL_BANDS "36"
SPECTRAL_START_NM "380.000000"
SPECTRAL_END_NM "730.000000"
SPECTRAL_NORM "1.000000"

NUMBER_OF_FIELDS 36
BEGIN_DATA_FORMAT
SPEC_380 SPEC_390 SPEC_400 SPEC_410 SPEC_420 SPEC_430 SPEC_440 SPEC_450 SPEC_460 SPEC_470 SPEC_480 SPEC_490 SPEC_500 SPEC_510 SPEC_520 SPEC_530 SPEC_540 SPEC_550 SPEC_560 SPEC_570 SPEC_580 SPEC_590 SPEC_600 SPEC_610 SPEC_620 SPEC_630 SPEC_640 SPEC_650 SPEC_660 SPEC_670 SPEC_680 SPEC_690 SPEC_700 SPEC_710 SPEC_720 SPEC_730 
END_DATA_FORMAT

NUMBER_OF_SETS 1
BEGIN_DATA
0.295476 0.284497 0.273152 1.112246 5.810175 22.94213 70.65407 107.0509 70.81158 44.67047 48.45859 67.19517 78.95832 77.96599 72.98855 69.84774 68.85335 69.13546 68.94520 68.80423 67.88102 67.03831 66.96512 67.86926 69.20038 69.78495 68.42872 64.72505 58.46651 50.77477 42.68577 35.02974 27.98545 21.75128 16.54749 12.25683 
END_DATA
